X:1
T:Cara virtu che fai
T:Giammateo Asola
T:Source : Madrigali a due voci---Venetia---G.Vincenti---1587. Editor : André Vierendeels (18/04/17).
T:Notes : Original clefs : C3, C3 "Fuga di un tempo in unisono" Editorial accidentals above the staff
T:Cara virtu che fai
T:©
T:©
C:Giammateo Asola
Z:©
%%score [ 1 2 ]
L:1/8
Q:1/4=120
M:4/4
K:C
V:1 treble-8 nm="Tenor 1" snm="T 1"
V:2 treble-8 nm="Tenor 2" snm="T 2"
V:1
 G4 d2 d2 | e2 e2 f4 | d2 g2 g2 f2 | g2 g2 a3 g | f2 e2 d4 | z2 G2 d4- | d2 c2 B4 | A2 d2 defg | %8
w: Ca- ra vir-|tu che fa-|i, lo spir- to|ca- ro'a Di- *|* * o,|ond' ei|_ lo mi-|ra, ond' e- * * *|
 fd a4 g2 | a4 d2 d2- | d2 c2 B4 | A4 _B4 | A4 z2 d2 | a2 a2 f2 d2 | e4 d4 | z2 A2 B2 d2- | %16
w: * * i lo|mi- ra con|_ pie- to-|si ra-|i, et|e- gl'il suo de-|si- o,|la sua spe-|
 d2 c2 d2 f2- | f2 e2 d4 | e4 z2 d2 | A2 c4 B2 | c4 f4 | e4 z2 d2 | e2 e2 A2 B2 | c4 G4 | %24
w: * * me il|_ suo be-|ne, per|te ferm' in|lui tie-|ne, n'è|mai par- tir si|vo- le,|
 z2 c2 c2 d2 | e2 c2 d4 | c2 e2 e2 f2 | g2 e2 f4 | e3 d c2 d2 | B2 e4 d2 | e2 g2 g2 f2 | g4 z2 G2 | %32
w: n'è mai par-|tir si vo-|le, n'è mai par-|tir si vo-|le, _ _ da|lu- * *|i, per tutt' il|ben, per|
 c4 A4 | G2 d2 e2 d2 | e2 g4 f2 | g2 G2 c2 B2 | c3 B A4 | G4 z2 d2 | e2 e2 c2 c2 | d2 e2 d4 | %40
w: tutt' il|ben, ch'è sott' il|so- * *|le, ch'è sott' il|so- * *|le, per|tut- to'il ben, ch'è|sott' il so-|
 G2 g2 g2 e2 | f2 g4 f2 | g8 |] %43
w: le, ch'è sott' il|so- * *|le.|
V:2
 z8 | z8 | G4 d2 d2 | e2 e2 f4 | d2 g2 g2 f2 | g2 g2 a3 g | f2 e2 d4 | z2 G2 d4- | d2 c2 B4 | %9
w: ||Ca- ra vir-|tu che fa-|i, lo spir- to|ca- ro'a Di- *|* * o,|ond' ei|_ lo mi-|
 A2 d2 defg | fd a4 g2 | a4 d2 d2- |"^b" d2 c2 B4 | A4 _B4 | A4 z2 d2 | a2 a2 f2 d2 | e4 d4 | %17
w: ra, ond' e- * * *|* * i lo|mi- ra con|_ pie- to-|si ra-|i, et|e- gl'il suo de-|si- o,|
 z2 A2 B2 d2- | d2 c2 d2 f2- | f2 e2 d4 | e4 z2 d2 | A2 c4 B2 | c4 f4 | e4 z2 d2 | e2 e2 A2 B2 | %25
w: la sua spe-|* * me il|_ suo be-|ne, per|te ferm' in|lui tie-|ne, n'è|mai par- tir si|
 c4 B4 | z2 c2 c2 d2 | e2 c2 d4 | c2 e2 e2 f2 | g2 e2 f4 | e3 d c2 d2 | B2 e4 d2 | %32
w: vo- le,|n'è mai par-|tir si vo-|le, n'è mai par-|tir si vo-|le, _ _ da|lu- * *|
"^#" e2 g2 g2 f2 | g4 z2 G2 | c4 A4 | G2 d2 e2 d2 |"^#" e2 g4 f2 | g2 G2 c2 B2 |"^#" c3 B A4 | %39
w: i, per tutt' il|ben, per|tutt' il|ben, ch'è sott' il|so- * *|le, ch'è sott' il|so- * *|
 G4 z2 d2 | e2 e2 c2 c2 | d2 e2 d4 | G8 |] %43
w: le, per|tut- to'il ben, ch'è|sott' il so-|le.|

